remix/Device/remote-control-2-line.svg

<svg viewBox="0 0 24 24" fill="currentColor" xmlns="http://www.w3.org/2000/svg"><path d="M18 2C18.5523 2 19 2.44772 19 3V21C19 21.5523 18.5523 22 18 22H6C5.44772 22 5 21.5523 5 21V3C5 2.44772 5.44772 2 6 2H18ZM17 4H7V20H17V4ZM15 15V17H13V15H15ZM11 15V17H9V15H11ZM13 6V8H15V10H12.999L13 12H11L10.999 10H9V8H11V6H13Z"/></svg>

<svg viewBox="0 0 24 24" xmlns="http://www.w3.org/2000/svg"><path fill="none" d="M0 0h24v24H0Z"/><path d="M18 2v0c.55 0 1 .44 1 1v18 0c0 .55-.45 1-1 1H6v0c-.56 0-1-.45-1-1V3v0c0-.56.44-1 1-1h12Zm-1 2H7v16h10V4Zm-2 11v2h-2v-2h2Zm-4 0v2H9v-2h2Zm2-9v2h2v2h-2.01l0 2h-2l-.01-2h-2V8h2V6h2Z"/></svg>
